X: 30261
U: Q=!diminuendo(!
U: q=!diminuendo)!
M: 3/4
L: 1/8
K: C
(3({a}g^fg) |\
c'2 z2 (3({a}g^fg) | e2 z2 (3({d}cBc) | G4 c2 | e2 z2 (3({a}g^fg) |\
=f2 z2 (3{e}d^cd | B2 z2 (3{A}G^FG | c4 e2 | g2 z2 (3({a}g^fg) |\
c'2 z2 (3({a}g^fg) | e2 z2 (3({d}cBc) |
Q(a2 qg2) ec | Q(g2 qf2) dB | c2 c2 e2 | c2 z2 !fine!:|\
^FG |\
Qg4 q^fg | Qe4 q^de | Qc4 qBc | QG2 q^FGAG | c2 Bcdc |
e2 ^defe | (g6 | G)ABcde | f6- | fedcBA | G6 |\


